X:1390
T:CURRAGH1- The Winter it is Past
O:england
S:Oswald's 'Caledonian Pocket Companion', bk 10, c 1759-60
Q:1/4=120
L:1/8
M:2/4
K:G
G/A/|BABd|G2gf|dBAB|G2AB|cdef|{e/f/}g2 f3/2e/|d3::\
c/B/|cdef|{e/f/}g2fe|dBAG|A2GA|B2Be|dcBA|G3:|]


